app/assets/images/ios7-filing-outline.svg

<svg xmlns="http://www.w3.org/2000/svg" width="512" height="512" viewBox="0 0 512 512"><path d="M368.5 128h-225L80 224v160h352V224l-63.5-96zm44.9 96H368v-68l45.4 68zM160 144h192v80h-48c0 26.5-21.5 48-48 48s-48-21.5-48-48h-48v-80zm-16 12v68H98.6l45.4-68zm272 212H96V240h98c7.1 27.6 32.2 48 62 48s54.9-20.4 62-48h98v128z"/></svg>

<?xml version="1.0" encoding="utf-8"?>
<!-- Generator: Adobe Illustrator 16.2.1, SVG Export Plug-In . SVG Version: 6.00 Build 0)  -->
<!DOCTYPE svg PUBLIC "-//W3C//DTD SVG 1.1//EN" "http://www.w3.org/Graphics/SVG/1.1/DTD/svg11.dtd">
<svg version="1.1" id="Layer_1" xmlns="http://www.w3.org/2000/svg" xmlns:xlink="http://www.w3.org/1999/xlink" x="0px" y="0px"
	 width="512px" height="512px" viewBox="0 0 512 512" style="enable-background:new 0 0 512 512;" xml:space="preserve">
<path d="M368.5,128h-225L80,224v160h176h176V224L368.5,128z M413.4,224H368v-68L413.4,224z M160,144h192v80h-48
	c0,26.5-21.5,48-48,48s-48-21.5-48-48h-48V144z M144,156v68H98.6L144,156z M416,368H256H96V240h98c7.1,27.6,32.2,48,62,48
	s54.9-20.4,62-48h98V368z"/>
</svg>
